Numix/16/status/indicator-keyboard-Te.svg

<?xml version="1.0" encoding="UTF-8" standalone="no"?>
<svg
   xmlns:dc="http://purl.org/dc/elements/1.1/"
   xmlns:cc="http://creativecommons.org/ns#"
   xmlns:rdf="http://www.w3.org/1999/02/22-rdf-syntax-ns#"
   xmlns:svg="http://www.w3.org/2000/svg"
   xmlns="http://www.w3.org/2000/svg"
   xmlns:sodipodi="http://sodipodi.sourceforge.net/DTD/sodipodi-0.dtd"
   xmlns:inkscape="http://www.inkscape.org/namespaces/inkscape"
   viewBox="0 0 16 16"
   id="svg2"
   version="1.1"
   inkscape:version="0.91 r13725"
   sodipodi:docname="indicator-keyboard-Te.svg">
  <metadata
     id="metadata13">
    <rdf:RDF>
      <cc:Work
         rdf:about="">
        <dc:format>image/svg+xml</dc:format>
        <dc:type
           rdf:resource="http://purl.org/dc/dcmitype/StillImage" />
      </cc:Work>
    </rdf:RDF>
  </metadata>
  <defs
     id="defs11" />
  <sodipodi:namedview
     pagecolor="#ffffff"
     bordercolor="#666666"
     borderopacity="1"
     objecttolerance="10"
     gridtolerance="10"
     guidetolerance="10"
     inkscape:pageopacity="0"
     inkscape:pageshadow="2"
     inkscape:window-width="640"
     inkscape:window-height="480"
     id="namedview9"
     showgrid="false"
     inkscape:zoom="14.75"
     inkscape:cx="8"
     inkscape:cy="8"
     inkscape:window-x="65"
     inkscape:window-y="24"
     inkscape:window-maximized="0"
     inkscape:current-layer="svg2" />
  <path
     style="fill:#ececec;fill-opacity:1"
     d="M 1.5996094 0 C 0.71320937 2.9605947e-16 0 0.71320937 0 1.5996094 L 0 14.400391 C 2.9605947e-16 15.286791 0.71320937 16 1.5996094 16 L 14.400391 16 C 15.286791 16 16 15.286791 16 14.400391 L 16 1.5996094 C 16 0.71320937 15.286791 0 14.400391 0 L 1.5996094 0 z M 3.6132812 4.8320312 L 8.2207031 4.8320312 L 8.2207031 5.3632812 L 6.2226562 5.3632812 L 6.2226562 11.068359 L 5.6113281 11.068359 L 5.6113281 5.3632812 L 3.6132812 5.3632812 L 3.6132812 4.8320312 z M 10.515625 6.3085938 C 11.085625 6.3085938 11.539 6.4932344 11.875 6.8652344 C 12.217 7.2372344 12.386719 7.8119375 12.386719 8.5859375 C 12.386719 8.6339375 12.384906 8.6805156 12.378906 8.7285156 C 12.378906 8.7765156 12.375141 8.8212812 12.369141 8.8632812 L 9.1015625 8.8632812 C 9.1195625 9.4332812 9.2613906 9.8717345 9.5253906 10.177734 C 9.7893906 10.483734 10.209156 10.636719 10.785156 10.636719 C 11.103156 10.636719 11.355016 10.606875 11.541016 10.546875 C 11.727016 10.486875 11.861313 10.436531 11.945312 10.394531 L 12.054688 10.898438 C 11.970688 10.946438 11.810172 11.002359 11.576172 11.068359 C 11.348172 11.134359 11.079578 11.167969 10.767578 11.167969 C 10.359578 11.167969 10.010656 11.108281 9.7226562 10.988281 C 9.4346562 10.868281 9.1977188 10.700375 9.0117188 10.484375 C 8.8257187 10.268375 8.6914219 10.01275 8.6074219 9.71875 C 8.5234219 9.41875 8.4804688 9.0922813 8.4804688 8.7382812 C 8.4804688 8.3302812 8.5383438 7.9757812 8.6523438 7.6757812 C 8.7723437 7.3697813 8.9253281 7.1141562 9.1113281 6.9101562 C 9.3033281 6.7061563 9.5197656 6.5569375 9.7597656 6.4609375 C 10.005765 6.3589375 10.257625 6.3085938 10.515625 6.3085938 z M 10.523438 6.8300781 C 10.313438 6.8300781 10.125031 6.8710781 9.9570312 6.9550781 C 9.7950313 7.0390781 9.6513906 7.1548281 9.5253906 7.2988281 C 9.4053906 7.4368281 9.3083281 7.5972031 9.2363281 7.7832031 C 9.1703281 7.9692031 9.1311406 8.1651406 9.1191406 8.3691406 L 11.783203 8.3691406 C 11.771203 7.8831406 11.657406 7.504375 11.441406 7.234375 C 11.225406 6.964375 10.919438 6.8300781 10.523438 6.8300781 z "
     id="path4" />
</svg>

<svg xmlns="http://www.w3.org/2000/svg" viewBox="0 0 16 16">
 <path d="m 1.6 0 c -0.886 0 -1.6 0.713 -1.6 1.6 l 0 12.801 c 0 0.886 0.713 1.6 1.6 1.6 l 12.801 0 c 0.886 0 1.6 -0.713 1.6 -1.6 l 0 -12.801 c 0 -0.886 -0.713 -1.6 -1.6 -1.6 l -12.801 0 z m 2.01 4.832 l 4.607 0 l 0 0.531 l -1.998 0 l 0 5.705 l -0.611 0 l 0 -5.705 l -1.998 0 l 0 -0.531 z m 6.902 1.477 c 0.57 0 1.023 0.185 1.359 0.557 c 0.342 0.372 0.512 0.947 0.512 1.721 c 0 0.048 -0.002 0.095 -0.008 0.143 c 0 0.048 -0.004 0.093 -0.01 0.135 l -3.268 0 c 0.018 0.57 0.16 1.01 0.424 1.314 c 0.264 0.306 0.684 0.459 1.26 0.459 c 0.318 0 0.57 -0.03 0.756 -0.09 c 0.186 -0.06 0.32 -0.11 0.404 -0.152 l 0.109 0.504 c -0.084 0.048 -0.245 0.104 -0.479 0.17 c -0.228 0.066 -0.497 0.1 -0.809 0.1 c -0.408 0 -0.757 -0.06 -1.045 -0.18 c -0.288 -0.12 -0.525 -0.288 -0.711 -0.504 c -0.186 -0.216 -0.32 -0.472 -0.404 -0.766 c -0.084 -0.3 -0.127 -0.626 -0.127 -0.98 c 0 -0.408 0.058 -0.762 0.172 -1.062 c 0.12 -0.306 0.273 -0.562 0.459 -0.766 c 0.192 -0.204 0.408 -0.353 0.648 -0.449 c 0.246 -0.102 0.498 -0.152 0.756 -0.152 z m 0.008 0.521 c -0.21 0 -0.398 0.041 -0.566 0.125 c -0.162 0.084 -0.306 0.2 -0.432 0.344 c -0.12 0.138 -0.217 0.298 -0.289 0.484 c -0.066 0.186 -0.105 0.382 -0.117 0.586 l 2.664 0 c -0.012 -0.486 -0.126 -0.865 -0.342 -1.135 c -0.216 -0.27 -0.522 -0.404 -0.918 -0.404 z" style="fill:#ececec;fill-opacity:1"/>
</svg>
